X:1
T:Title
L:1/8
Q:1/4=110
M:3/4
K:G
V:1 treble nm="Church Organ, Staff"
V:1
 d d2 d2 e | d B2 B2 G- | G c2 B2 A- | A .G3 z G | B d2 d2 e | d B2 B2 G- | G c2 B2 A- | %7
w: By~Old~Melody * * *|||||||
 A .G3 z B- | B A2 A2 c- | c B2 G2 G- | G g2 f2 e- | ed- d2- d/ z/ G | G c2 e2 c- | c d2 d2 G- | %14
w: |||||||
 G c2 B2 A- | AG- G2- G/ z/ B- | B A2 A2 c- | c B2 G2 G- | G g2 f2 e- | ed- d2- d/ z/ G- | %20
w: ||||||
 G c2 e2 c- | c d2 d2 G- | G c2 B2 A- | AG- G2- G/ z/ z |] %24
w: ||||

